humanity-icon-theme/Humanity-Dark/apps/24/nm-stage03-connecting10.svg

<?xml version="1.0" encoding="UTF-8" standalone="no"?>
<!-- Created with Inkscape (http://www.inkscape.org/) -->

<svg
   xmlns:svg="http://www.w3.org/2000/svg"
   xmlns="http://www.w3.org/2000/svg"
   version="1.0"
   width="24"
   height="24"
   id="svg3315">
  <defs
     id="defs3317" />
  <path
     d="m 15.97535,14.496653 4.330519,2.500227"
     id="path3279"
     style="opacity:0.2;fill:none;stroke:#878787;stroke-width:0.99999994px;stroke-linecap:round;stroke-linejoin:miter;stroke-opacity:1" />
  <path
     d="m 4.7066065,7.9906429 4.33248,2.5013561"
     id="path3281"
     style="fill:none;stroke:#878787;stroke-width:0.99999994px;stroke-linecap:round;stroke-linejoin:miter;stroke-opacity:1" />
  <path
     d="m 16.375529,13.530533 4.830067,1.294213"
     id="path2629"
     style="opacity:0.175;fill:none;stroke:#878787;stroke-width:0.99999994px;stroke-linecap:round;stroke-linejoin:miter;stroke-opacity:1" />
  <path
     d="m 3.8068782,10.162776 4.832256,1.294796"
     id="path2631"
     style="opacity:0.875;fill:none;stroke:#878787;stroke-width:0.99999994px;stroke-linecap:round;stroke-linejoin:miter;stroke-opacity:1" />
  <path
     d="m 16.512024,12.49376 5.000451,0"
     id="path3403"
     style="opacity:0.15;fill:none;stroke:#878787;stroke-width:0.99999994px;stroke-linecap:round;stroke-linejoin:miter;stroke-opacity:1" />
  <path
     d="m 3.499999,12.493761 5.0027167,-10e-7"
     id="path3405"
     style="opacity:0.75;fill:none;stroke:#878787;stroke-width:0.99999994px;stroke-linecap:round;stroke-linejoin:miter;stroke-opacity:1" />
  <path
     d="m 16.375528,11.456986 4.830069,-1.294209"
     id="path3407"
     style="opacity:0.125;fill:none;stroke:#878787;stroke-width:0.99999994px;stroke-linecap:round;stroke-linejoin:miter;stroke-opacity:1" />
  <path
     d="m 3.8068795,14.824744 4.832254,-1.294795"
     id="path3409"
     style="opacity:0.675;fill:none;stroke:#878787;stroke-width:0.99999994px;stroke-linecap:round;stroke-linejoin:miter;stroke-opacity:1" />
  <path
     d="M 15.97535,10.490866 20.305869,7.9906417"
     id="path3415"
     style="opacity:0.1;fill:none;stroke:#878787;stroke-width:0.99999994px;stroke-linecap:round;stroke-linejoin:miter;stroke-opacity:1" />
  <path
     d="M 4.7066055,16.996879 9.0390851,14.495521"
     id="path3417"
     style="opacity:0.6;fill:none;stroke:#878787;stroke-width:0.99999994px;stroke-linecap:round;stroke-linejoin:miter;stroke-opacity:1" />
  <path
     d="M 15.338754,9.6612408 18.874609,6.1253885"
     id="path3419"
     style="opacity:0.075;fill:none;stroke:#878787;stroke-width:0.99999994px;stroke-linecap:round;stroke-linejoin:miter;stroke-opacity:1" />
  <path
     d="M 6.1378648,18.862131 9.6753195,15.324677"
     id="path3421"
     style="opacity:0.55;fill:none;stroke:#878787;stroke-width:0.99999994px;stroke-linecap:round;stroke-linejoin:miter;stroke-opacity:1" />
  <path
     d="M 14.50913,9.0246483 17.009356,4.6941306"
     id="path3423"
     style="opacity:0.05;fill:none;stroke:#878787;stroke-width:0.99999994px;stroke-linecap:round;stroke-linejoin:miter;stroke-opacity:1" />
  <path
     d="m 8.003119,20.293392 2.501358,-4.332481"
     id="path3425"
     style="opacity:0.5;fill:none;stroke:#878787;stroke-width:0.99999994px;stroke-linecap:round;stroke-linejoin:miter;stroke-opacity:1" />
  <path
     d="M 13.543009,8.624471 14.837223,3.7944038"
     id="path3427"
     style="opacity:0.025;fill:none;stroke:#878787;stroke-width:0.99999994px;stroke-linecap:round;stroke-linejoin:miter;stroke-opacity:1" />
  <path
     d="m 10.17525,21.193118 1.294799,-4.832253"
     id="path3429"
     style="opacity:0.45;fill:none;stroke:#878787;stroke-width:0.99999994px;stroke-linecap:round;stroke-linejoin:miter;stroke-opacity:1" />
  <path
     d="m 12.506239,21.499999 -3e-6,-5.002716"
     id="path3433"
     style="opacity:0.4;fill:none;stroke:#878787;stroke-width:0.99999994px;stroke-linecap:round;stroke-linejoin:miter;stroke-opacity:1" />
  <path
     d="M 14.837222,21.193117 13.542424,16.360864"
     id="path3437"
     style="opacity:0.35;fill:none;stroke:#878787;stroke-width:0.99999988px;stroke-linecap:round;stroke-linejoin:miter;stroke-opacity:1" />
  <path
     d="m 17.009356,20.293392 -2.501358,-4.33248"
     id="path2407"
     style="opacity:0.3;fill:none;stroke:#878787;stroke-width:0.99999994px;stroke-linecap:round;stroke-linejoin:miter;stroke-opacity:1" />
  <path
     d="M 18.87461,18.862131 15.337154,15.324676"
     id="path2413"
     style="opacity:0.25;fill:none;stroke:#878787;stroke-width:0.99999994px;stroke-linecap:round;stroke-linejoin:miter;stroke-opacity:1" />
  <path
     d="m 6.137865,6.1253898 3.5374552,3.537455"
     id="path2401"
     style="opacity:0;fill:none;stroke:#878787;stroke-width:0.99999994px;stroke-linecap:round;stroke-linejoin:miter;stroke-opacity:1" />
  <path
     d="m 10.175251,3.7944044 1.2948,4.8322523"
     id="path2405"
     style="opacity:0;fill:none;stroke:#878787;stroke-width:0.99999994px;stroke-linecap:round;stroke-linejoin:miter;stroke-opacity:1" />
  <path
     d="M 8.0031187,4.6941308 10.504478,9.0266096"
     id="path2410"
     style="opacity:0;fill:none;stroke:#878787;stroke-width:0.99999994px;stroke-linecap:round;stroke-linejoin:miter;stroke-opacity:1" />
  <path
     d="m 12.506238,3.4875229 0,5.0027162"
     id="path2414"
     style="opacity:0;fill:none;stroke:#878787;stroke-width:0.99999994px;stroke-linecap:round;stroke-linejoin:miter;stroke-opacity:1" />
</svg>

<?xml version="1.0" encoding="UTF-8" standalone="no"?>
<!-- Created with Inkscape (http://www.inkscape.org/) -->
<svg id="svg3315" xmlns="http://www.w3.org/2000/svg" height="24" width="24" version="1.0">
 <path id="path3279" style="opacity:.2;stroke:#878787;stroke-linecap:round;stroke-width:1px;fill:none" d="m15.975 14.497 4.3305 2.5002"/>
 <path id="path3281" style="stroke:#878787;stroke-linecap:round;stroke-width:1px;fill:none" d="m4.7066 7.9906 4.3325 2.5014"/>
 <path id="path2629" style="opacity:.175;stroke:#878787;stroke-linecap:round;stroke-width:1px;fill:none" d="m16.376 13.531 4.8301 1.2942"/>
 <path id="path2631" style="opacity:.875;stroke:#878787;stroke-linecap:round;stroke-width:1px;fill:none" d="m3.8069 10.163 4.8323 1.2948"/>
 <path id="path3403" style="opacity:.15;stroke:#878787;stroke-linecap:round;stroke-width:1px;fill:none" d="m16.512 12.494h5.0005"/>
 <path id="path3405" style="opacity:.75;stroke:#878787;stroke-linecap:round;stroke-width:1px;fill:none" d="m3.5 12.494 5.0027-0.000001"/>
 <path id="path3407" style="opacity:.125;stroke:#878787;stroke-linecap:round;stroke-width:1px;fill:none" d="m16.376 11.457 4.8301-1.2942"/>
 <path id="path3409" style="opacity:.675;stroke:#878787;stroke-linecap:round;stroke-width:1px;fill:none" d="m3.8069 14.825 4.8323-1.2948"/>
 <path id="path3415" style="opacity:.1;stroke:#878787;stroke-linecap:round;stroke-width:1px;fill:none" d="m15.975 10.491 4.331-2.5004"/>
 <path id="path3417" style="opacity:.6;stroke:#878787;stroke-linecap:round;stroke-width:1px;fill:none" d="m4.7066 16.997 4.3325-2.501"/>
 <path id="path3419" style="opacity:.075;stroke:#878787;stroke-linecap:round;stroke-width:1px;fill:none" d="m15.339 9.6612 3.536-3.5358"/>
 <path id="path3421" style="opacity:.55;stroke:#878787;stroke-linecap:round;stroke-width:1px;fill:none" d="m6.1379 18.862 3.5374-3.537"/>
 <path id="path3423" style="opacity:.05;stroke:#878787;stroke-linecap:round;stroke-width:1px;fill:none" d="m14.509 9.0246 2.5-4.3305"/>
 <path id="path3425" style="opacity:.5;stroke:#878787;stroke-linecap:round;stroke-width:1px;fill:none" d="m8.0031 20.293 2.5014-4.3325"/>
 <path id="path3427" style="opacity:.025;stroke:#878787;stroke-linecap:round;stroke-width:1px;fill:none" d="m13.543 8.6245 1.294-4.8301"/>
 <path id="path3429" style="opacity:.45;stroke:#878787;stroke-linecap:round;stroke-width:1px;fill:none" d="m10.175 21.193 1.2948-4.8323"/>
 <path id="path3433" style="opacity:.4;stroke:#878787;stroke-linecap:round;stroke-width:1px;fill:none" d="m12.506 21.5-0.000003-5.0027"/>
 <path id="path3437" style="opacity:.35;stroke:#878787;stroke-linecap:round;stroke-width:1px;fill:none" d="m14.837 21.193-1.295-4.832"/>
 <path id="path2407" style="opacity:.3;stroke:#878787;stroke-linecap:round;stroke-width:1px;fill:none" d="m17.009 20.293-2.5014-4.3325"/>
 <path id="path2413" style="opacity:.25;stroke:#878787;stroke-linecap:round;stroke-width:1px;fill:none" d="m18.875 18.862-3.538-3.537"/>
 <path id="path2401" style="opacity:0;stroke-width:1px" d="m6.1379 6.1254 3.5375 3.5375"/>
 <path id="path2405" style="opacity:0;stroke-width:1px" d="m10.175 3.7944 1.2948 4.8323"/>
 <path id="path2410" style="opacity:0;stroke-width:1px" d="m8.0031 4.6941 2.5009 4.3325"/>
 <path id="path2414" style="opacity:0;stroke-width:1px" d="m12.506 3.4875v5.0027"/>
</svg>
